X: 1
T: Highland Laddie
C: Trad Schottish
L: 1/8
M: 4/4
K: Amaj
|: E | "A"A3B c2e2 | dcBA c3B | "E"c2B2 B2AB | c2B2 B3E | 
"A"A3B c2e2 | dcBA c3B | "F#m"A2F2 F2EF | A2F2 F3 :|
|: e | "D"f2a2 "A"e3c | "D"dcBA "A"c3B | "E"c2B2 B2AB | c2B2 B3 e |
"D"f2a2 "A"e3c | "D"dcBA "A"c3B | "F#m"A2F2 F2EF | A2F2 F3 :|